!!!SOCIAL_FUNCTION:	war songs
!!!PDT:	1929
!!!OTL: No_147_The_Eagle_Is_Talking.krn
!!!REG: Southwest
!!!LANG: Non-Tone
!!!LING_GROUP: Uto-Aztecan
**kern
*staff1
=1-
*clefF4
*k[b-e-a-d-g-c-]
*M2/4
2e-\
=2
8.d-\L
16A-\Jk
8.A-\L
16d-\Jk
=3
4.d-\
8B-\
=4||
*M3/4
2A-\
4A-\
=5!|:
8B-\L
8A-\J
8A-\L
8G-\J
8G-\L
8E-\J
=6||
*M2/4
4G-\
8.G-\L
16G-\Jk
=7
8G-\L
8G-\J
4E-\
=8
8.E-\L
16E-\Jk
8E-\L
8E-\J
=9
4E-\
4D-\
=10
4E-\
4E-\
=11||
*M3/4
2.E-\
=12||
*M2/4
4B-\
8.B-\L
16B-\Jk
=13
4.A-\
8G-\
=14
16G-\LK
[8.E-\J
4E-\]
=15||
*M3/4
12G-\L
12G-\
12G-\J
(8G-\L
8E-\J)
16G-\LK
8E-\
16E-\Jk
=16||
*M2/4
8.E-\L
16E-\Jk
8E-\L
8E-\J
=17
4E-\
8.D-\L
16D-\Jk
=18||
*M3/4
8E-\L
8E-\J
4E-\
4D-\
=19||
*M2/4
4E-\
4E-\
=20
2E-\
==:|!
*-
